build/img/products/photoshop-icon.svg

<svg width="40" height="40" viewBox="0 0 40 40" fill="none" xmlns="http://www.w3.org/2000/svg">
<path d="M7.08356 0.5H32.9164C36.8329 0.5 40 3.66622 40 7.58356V32.4173C40 36.3338 36.8338 39.5009 32.9164 39.5009H7.08356C3.16711 39.5009 0 36.3347 0 32.4173V7.58356C0 3.66711 3.16622 0.5 7.08356 0.5Z" fill="#001E36"/>
<path d="M9 27.8478V10.6985C9 10.5821 9.04978 10.5154 9.16711 10.5154C9.45067 10.5154 9.71733 10.5154 10.1004 10.4985C10.5004 10.4816 10.9173 10.4816 11.3671 10.4647C11.8169 10.4478 12.3004 10.4478 12.8169 10.431C13.3333 10.4141 13.8338 10.4141 14.3333 10.4141C15.7004 10.4141 16.8329 10.5812 17.7662 10.9305C18.6 11.2141 19.3662 11.6807 19.9991 12.2976C20.5324 12.831 20.9493 13.4807 21.216 14.1981C21.4658 14.8976 21.5991 15.615 21.5991 16.3652C21.5991 17.7981 21.2658 18.9821 20.5991 19.9154C19.9324 20.8487 18.9991 21.5492 17.9156 21.9492C16.7822 22.3661 15.5324 22.5154 14.1653 22.5154C13.7653 22.5154 13.4987 22.5154 13.3316 22.4985C13.1644 22.4816 12.9316 22.4816 12.6151 22.4816V27.8318C12.632 27.9483 12.5484 28.0487 12.432 28.0647C12.4151 28.0647 12.3982 28.0647 12.3653 28.0647H9.2C9.06667 28.0647 9 27.9981 9 27.8478ZM12.6329 13.7314V19.3314C12.8667 19.3483 13.0827 19.3652 13.2827 19.3652H14.1662C14.816 19.3652 15.4658 19.2656 16.0827 19.0647C16.616 18.9145 17.0827 18.5981 17.4498 18.1812C17.8 17.7643 17.9662 17.1981 17.9662 16.4647C17.9831 15.9483 17.8498 15.4318 17.5831 14.9812C17.2996 14.5474 16.8996 14.215 16.4169 14.031C15.8 13.7812 15.1333 13.6807 14.4507 13.6976C14.0169 13.6976 13.6338 13.6976 13.3173 13.7145C12.9831 13.6976 12.7502 13.7145 12.6329 13.7314Z" fill="#31A8FF"/>
<path d="M31.9991 18.3131C31.4996 18.0464 30.9662 17.8633 30.3991 17.746C29.7822 17.6127 29.1653 17.5291 28.5325 17.5291C28.1991 17.5122 27.8489 17.562 27.5325 17.6455C27.3156 17.6953 27.1325 17.8127 27.016 17.9789C26.9325 18.1122 26.8827 18.2793 26.8827 18.4287C26.8827 18.5789 26.9493 18.7291 27.0498 18.8624C27.2 19.0455 27.4 19.1958 27.6169 19.3122C28 19.5122 28.4 19.6953 28.8 19.8624C29.6996 20.1629 30.5671 20.5789 31.3671 21.0793C31.9173 21.4295 32.3671 21.8962 32.6836 22.4624C32.9502 22.9958 33.0836 23.5789 33.0667 24.1789C33.0836 24.962 32.8498 25.7451 32.4169 26.3958C31.9502 27.0624 31.3005 27.5789 30.5502 27.8793C29.7333 28.2295 28.7333 28.4127 27.5333 28.4127C26.7662 28.4127 26.0169 28.346 25.2667 28.1958C24.6836 28.0953 24.1005 27.9122 23.5671 27.6624C23.4507 27.5958 23.3671 27.4793 23.384 27.346V24.4464C23.384 24.3967 23.4009 24.33 23.4507 24.2962C23.5005 24.2624 23.5502 24.2793 23.6009 24.3131C24.2507 24.6962 24.9342 24.9629 25.6676 25.13C26.3005 25.2971 26.9671 25.3798 27.6338 25.3798C28.2676 25.3798 28.7173 25.2962 29.0169 25.1469C29.2836 25.0304 29.4667 24.7469 29.4667 24.4464C29.4667 24.2135 29.3333 23.9967 29.0667 23.7798C28.8 23.5629 28.2498 23.3131 27.4329 22.9967C26.5831 22.6962 25.7991 22.2962 25.0667 21.7967C24.5502 21.4304 24.1165 20.9469 23.8 20.3798C23.5333 19.8464 23.4 19.2633 23.4169 18.6802C23.4169 17.9638 23.6169 17.2802 23.984 16.6633C24.4009 15.9967 25.0169 15.4633 25.7342 15.13C26.5173 14.73 27.5013 14.5469 28.6845 14.5469C29.368 14.5469 30.0676 14.5967 30.7511 14.6971C31.2507 14.7638 31.7342 14.8971 32.1849 15.0802C32.2516 15.0971 32.3182 15.1638 32.352 15.2304C32.3689 15.2971 32.3849 15.3638 32.3849 15.4304V18.1469C32.3849 18.2135 32.352 18.2802 32.3013 18.314C32.1493 18.3469 32.0658 18.3469 31.9991 18.3131Z" fill="#31A8FF"/>
</svg>

<svg width="40" height="40" fill="none" xmlns="http://www.w3.org/2000/svg"><path d="M7.084.5h25.832A7.077 7.077 0 0140 7.584v24.833a7.077 7.077 0 01-7.084 7.084H7.084A7.077 7.077 0 010 32.417V7.584A7.077 7.077 0 017.084.5z" fill="#001E36"/><path d="M9 27.848v-17.15c0-.116.05-.183.167-.183.284 0 .55 0 .933-.017.4-.016.817-.016 1.267-.033.45-.017.933-.017 1.45-.034.516-.017 1.017-.017 1.516-.017 1.367 0 2.5.167 3.433.517.834.283 1.6.75 2.233 1.367a5.31 5.31 0 011.217 1.9c.25.7.383 1.417.383 2.167 0 1.433-.333 2.617-1 3.55a5.71 5.71 0 01-2.683 2.034c-1.134.417-2.384.566-3.75.566-.4 0-.667 0-.834-.017-.168-.016-.4-.016-.717-.016v5.35a.207.207 0 01-.183.233H9.2c-.133 0-.2-.067-.2-.217zm3.633-14.117v5.6c.234.017.45.034.65.034h.883c.65 0 1.3-.1 1.917-.3.533-.15 1-.467 1.367-.884.35-.417.516-.983.516-1.716a2.743 2.743 0 00-.383-1.484 2.42 2.42 0 00-1.166-.95 4.89 4.89 0 00-1.966-.333c-.434 0-.817 0-1.134.016-.334-.016-.567 0-.684.017zM32 18.313a5.909 5.909 0 00-1.6-.567 8.793 8.793 0 00-1.867-.217 3.341 3.341 0 00-1 .116.855.855 0 00-.517.334.883.883 0 00-.133.45c0 .15.066.3.167.433.15.184.35.334.567.45.383.2.783.383 1.183.55.9.3 1.767.717 2.567 1.217.55.35 1 .817 1.317 1.383.266.534.4 1.117.383 1.717a3.882 3.882 0 01-.65 2.217 4.179 4.179 0 01-1.867 1.483c-.817.35-1.817.534-3.017.534-.767 0-1.516-.067-2.266-.217a6.752 6.752 0 01-1.7-.534c-.116-.066-.2-.183-.183-.316v-2.9c0-.05.017-.116.067-.15.05-.034.1-.017.15.017.65.383 1.333.65 2.067.817.633.167 1.3.25 1.966.25.634 0 1.083-.084 1.383-.233.267-.117.45-.4.45-.7 0-.233-.134-.45-.4-.667-.267-.217-.817-.467-1.634-.783-.85-.3-1.634-.7-2.366-1.2A4.308 4.308 0 0123.8 20.38a3.572 3.572 0 01-.383-1.7c0-.716.2-1.4.567-2.017a4.107 4.107 0 011.75-1.533c.783-.4 1.767-.583 2.95-.583.684 0 1.384.05 2.067.15.5.067.983.2 1.434.383.067.017.133.084.167.15a.825.825 0 01.033.2v2.717a.205.205 0 01-.084.167c-.152.033-.235.033-.302 0z" fill="#31A8FF"/></svg>
